X: 40495
T: Tommy Bhetty's
R: waltz
M: 3/4
K: Gmajor
|:D2|G3 B dB|G3 B dB|dg bg af|ga fg ef|
d3 B dB|G3 B dB|DE FG AB|cd Bc AB|
G3 B dB|G3 B dB|dg bg af|ga fg ef|
dg3 Bc|d3 c AF|GB dc AF|G3:|
|:g fg|ag fe dc|A2 F2 D2|cB cd ef|ga fg ef|
de ed cB|BA AG FE|DE FG AB|c2 B2 A2|
d2 Bc dB|dg bg af|g2 b3 a|ga fg ef|
dg dc Bc|d3 c AF|GB dc AF|G3:|

